X: 23582
T: Lilac City, The
R: jig
M: 6/8
K: Gdorian
|:GAB cBA|fgd2cB|c3 cBc|dcB cAF|
GAB cBA|fgd2cB|c2A DFA|1 G3 GDF:|2 G3 GBc||
|:d3 dBG|G,B,D GBd|c3 cAF|A,DF ABc|
d3 dBG|G,B,D GBd|cAF DBA|1 G3 GBc:|2 G3 GDF||

